X:431
T:Toutouik
Z:Jack Campin, http://www.campin.me.uk/
F:Jack Campin's Nine-Note Tunebook
% last edit 03-02-2013
G:lullaby
M:6/8
L:1/8
Q:3/8=62
K:GDor
z|B2B A2A|G2G D2D|B2B AGF|G3- G2:|
G|dBd cAc|BGB A2G|dBd cAc|BGB A3 |
  B2B A2A|G2G D2D|B2B AGF|G3- G2|]

